X:1
T:Title
%%score ( 1 2 ) 3
L:1/8
M:4/4
K:Bb
V:1 treble nm="Grand Piano"
V:2 treble 
V:3 bass nm="Grand Piano"
V:1
 z4 z2[Q:1/4=100] [Fd][Ec] | [DB]3 [DA] [B,G][B,F][A,E][B,D] | F4 z4 | %3
w: Nur~ mit~|Je su~ will~ ich,~ Pil ger,~|wan|
 [CA]3 [EG] [EF]>[EG] [DF][CE] | [CE]2 [B,D]2 z2 [Dd][FA] | [FB]3 F [Fd]>[Fc] [FB][FA] | %6
w: Ihm~ geh~ froh~ ich~ ein~ und~|aus;~ * Weg~ und~|Ziel~ find~ ich~ bei~ kei nem~|
 [FA]2 [EG]2 z2 [EB]>[EG] | [DF]3 [=EB] [Fd][Fc][FB][Fc] | [Fd]2 [DB]2 z2 [GB]>[EG] | %9
w: an dern,~ Er~ al|lein~ bringt~ Heil~ in~ Herz~ und~|Haus,~ * Er~ al|
 [DF]3 [GB] [Gd][Gc][FB][FA] |[M:3/4] [DB]4 z2 |] %11
w: lein~ bringt~ Heil~ in~ Herz~ und~|Haus.~|
V:2
 x8 | x8 | D3- [DE] [CE]2 [Ec][DB] | x8 | x8 | x8 | x8 | x8 | x8 | x8 |[M:3/4] x6 |] %11
w: ||* * * nur~ mit~|||||||||
V:3
 z4 z2 [B,,F,][B,,A,] | [B,,B,]3 [D,F,] E,[D,F,][C,F,][B,,F,] | [F,,F,]4 [F,,F,]2 [A,,F,][B,,F,] | %3
 F,3 [F,B,] [F,A,]>[F,A,] [A,,F,][A,,F,] | [B,,F,]4 z2 [B,,F,][E,F,] | %5
 [D,F,]3 [C,A,] [B,,B,]>[C,A,] [D,B,][D,B,] | [E,B,]2 [E,B,]2 z2 [G,B,]>[E,B,] | %7
 [F,B,]3 [G,B,] [F,B,][E,A,][D,B,][C,A,] | [B,,B,]4 z2 [E,B,]>[G,B,] | %9
 B,3 [G,D] [E,E][E,E][F,D][F,C] |[M:3/4] [B,,B,]4 z2 |] %11

